packages/admin/admin-icons/icons/columns-1.svg

<svg xmlns="http://www.w3.org/2000/svg" width="16" height="16" viewBox="0 0 16 16"><path fill="#242424" fill-rule="evenodd" d="M3,2.5 C3,2.25454011 3.17687516,2.05039163 3.41012437,2.00805567 L3.5,2 L9.5,2 C9.77614237,2 10,2.22385763 10,2.5 C10,2.74545989 9.82312484,2.94960837 9.58987563,2.99194433 L9.5,3 L4,3 L4,13 L12,13 L12,2.5 C12,2.25454011 12.1768752,2.05039163 12.4101244,2.00805567 L12.5,2 C12.7454599,2 12.9496084,2.17687516 12.9919443,2.41012437 L13,2.5 L13,13.5 C13,13.7454599 12.8231248,13.9496084 12.5898756,13.9919443 L12.5,14 L3.5,14 C3.25454011,14 3.05039163,13.8231248 3.00805567,13.5898756 L3,13.5 L3,2.5 Z"/></svg>

<svg width="16" height="16" fill="none" viewBox="0 0 16 16">
  <path fill="#242424" fill-rule="evenodd" d="M3 2.501a.5.5 0 0 1 .41-.492l.09-.008h6a.5.5 0 0 1 .09.992L9.5 3H4v10h8V2.5a.5.5 0 0 1 .41-.492L12.5 2a.5.5 0 0 1 .492.41L13 2.5v11a.5.5 0 0 1-.41.492L12.5 14h-9a.5.5 0 0 1-.492-.41L3 13.5v-11Z" clip-rule="evenodd"/>
</svg>
